!!!!SEGMENT: pl-cz--iii-31--005_bolehovsky-josef--litaniae-salus-infirmorum.krn
!!!cenid: 17xx:832
!!!COM: Bolehovský, Josef
!!!COM-rismID: pe30000404
!!!CDT: 1743-1811
!!!CNT: Czech
!!!OPR: Litaniae
!!!OTL: Salus infirmorum
!!!OMV: 005
!!!PDT:
!!!AGN: Sacred; Mass
!!!SMS-siglum: PL-CZ
!!!SMS-shelfmark: III-31
!!!SMS-shelfwork: 001-005 M
!!!SMS-variant:
!!!SMS-altvar:
!!!NIFC-rismSourceID: 300237604
!!!NIFC-rismChildID: 300237604
!!!NIFC-islandoraID: pl-cz:37498
!!!URL-pdf-islandora: https://repozytorium.nifc.pl/islandora/object/pl-cz%3A37498/datastream/PDF/view
!!!URL-scan:
!!!ONB-nifc: UWAGA: części Litanii: Kyrie, Sancta Maria, Virgo prudentissima, Rosa mystica, Salus infirmorum, Regina angelorum, Agnus Dei
!!!AIN: 1 alto 3 empty 1 organ 1 tenor 3 violn 1 vox
!!!key:
**kern	**fba	**kern	**kern	**kern	**kern	**text	**kern	**text	**kern	**text	**kern	**text	**kern	**kern
*part10	*	*part9	*part8	*part7	*part6	*part6	*part5	*part5	*part4	*part4	*part3	*part3	*part2	*part1
*	*	*group3	*group3	*group3	*group2	*	*group2	*	*group2	*	*group2	*	*group1	*group1
*staff10	*	*staff9	*staff8	*staff7	*staff6	*staff6	*staff5	*staff5	*staff4	*staff4	*staff3	*staff3	*staff2	*staff1
*Iorgan	*	*Ivioln	*Ivioln	*Ivioln	*Iempty	*	*Itenor	*	*Ialto	*	*Ivox	*	*Iempty	*Iempty
*I"Organo	*	*I"Violino 2do	*I"Violino Primo	*I"Violino Principali	*I"Baſso.	*	*I"Tenore	*	*I"Alto.	*	*I"Canto.	*	*I"Clarino Secundo in D#	*I"Clarino Primo in D#
*I'org	*	*I'vl 2	*I'vl 1	*I'vl princ	*I'B	*	*I'T	*	*I'A	*	*I'S	*	*I'clno in E♭	*I'clno 1 in E♭
*clefF4	*	*clefG2	*clefG2	*clefG2	*clefF4	*	*clefC4	*	*clefC3	*	*clefC1	*	*clefG2	*clefG2
*	*	*	*	*	*	*	*	*	*	*	*	*	*ITrd-2c-3	*ITrd-2c-3
*k[b-]	*	*k[b-]	*k[b-]	*k[b-]	*k[b-]	*	*k[b-]	*	*k[b-]	*	*k[b-]	*	*k[b-e-a-]	*k[b-e-a-]
*d:	*	*d:	*d:	*d:	*d:	*	*d:	*	*d:	*	*d:	*	*d:	*d:
*M4/4	*	*M4/4	*M4/4	*M4/4	*M4/4	*	*M4/4	*	*M4/4	*	*M4/4	*	*M4/4	*M4/4
*met(c)	*	*met(c)	*met(c)	*met(c)	*met(c)	*	*met(c)	*	*met(c)	*	*met(c)	*	*met(c)	*met(c)
=1	=1	=1	=1	=1	=1	=1	=1	=1	=1	=1	=1	=1	=1	=1
!	!	!	!LO:N:vis=16r	!	!	!	!	!	!	!	!	!	!	!
!LO:TX:a:t=Salus	!	!LO:TX:a:t=Salus	!LO:TX:a:t=Salus	!	!	!	!	!	!	!	!	!	!	!
!LO:TX:a:t=adagi&colon; Solo.	!	!LO:TX:a:t=Adagio	!LO:TX:a:t=Adagio	!LO:TX:a:t=P:problem=występuje tylko w części "Regina angelorum"	!LO:TX:a:t=Adagio	!	!LO:TX:a:t=ada	!	!LO:TX:a:t=ada&colon;	!	!LO:TX:a:t=ada&colon;	!	!LO:TX:a:t=Rosa et Salus Tacet	!LO:TX:a:t=Rosa et Salus Tacet
4D\	n	16.r	16.r	1ryy	0r	.	0r	.	0r	.	0r	.	1ryy	1ryy
.	.	32d/KLL	32d/KLL	.	.	.	.	.	.	.	.	.	.	.
.	.	16.f/	16.f/	.	.	.	.	.	.	.	.	.	.	.
.	.	32e/JJk	32e/JJk	.	.	.	.	.	.	.	.	.	.	.
8r	.	16.d/LL	16.d/LL	.	.	.	.	.	.	.	.	.	.	.
.	.	32a/K	32a/K	.	.	.	.	.	.	.	.	.	.	.
8D\	.	16.f/	16.f/	.	.	.	.	.	.	.	.	.	.	.
.	.	32d/JJk	32d/JJk	.	.	.	.	.	.	.	.	.	.	.
4C#X/	6	16.r	16.r	.	.	.	.	.	.	.	.	.	.	.
.	.	32e/KLL	32e/KLL	.	.	.	.	.	.	.	.	.	.	.
.	.	16.g/	16.g/	.	.	.	.	.	.	.	.	.	.	.
.	.	32f/JJk	32f/JJk	.	.	.	.	.	.	.	.	.	.	.
8r	.	16.e/LL	16.e/LL	.	.	.	.	.	.	.	.	.	.	.
.	.	32b-/K	32b-/K	.	.	.	.	.	.	.	.	.	.	.
8C#/	.	16.g/	16.g/	.	.	.	.	.	.	.	.	.	.	.
.	.	32e/JJk	32e/JJk	.	.	.	.	.	.	.	.	.	.	.
=2	=2	=2	=2	=2	=2	=2	=2	=2	=2	=2	=2	=2	=2	=2
4D/	.	16.r	16.r	1ryy	.	.	.	.	.	.	.	.	1ryy	1ryy
.	.	32f/KLL	32f/KLL	.	.	.	.	.	.	.	.	.	.	.
.	.	16.a/	16.a/	.	.	.	.	.	.	.	.	.	.	.
.	.	32g/JJk	32g/JJk	.	.	.	.	.	.	.	.	.	.	.
!	!	!	!LO:TX:a:t=P:problem=mixed beam	!	!	!	!	!	!	!	!	!	!	!
8r	.	16.f/LL	16.f/LL	.	.	.	.	.	.	.	.	.	.	.
.	.	32dd/K	32dd\K	.	.	.	.	.	.	.	.	.	.	.
8D\	.	16.a/	16.a\	.	.	.	.	.	.	.	.	.	.	.
.	.	32f/JJk	32f\JJk	.	.	.	.	.	.	.	.	.	.	.
!LO:TX:a:t=P:problem=mixed beam	!	!	!	!	!	!	!	!	!	!	!	!	!	!
8A\L	4	16e/LL	8e/L	.	.	.	.	.	.	.	.	.	.	.
.	.	16c#X/	.	.	.	.	.	.	.	.	.	.	.	.
8AA/J	#3	16c#/	16e/L	.	.	.	.	.	.	.	.	.	.	.
.	.	16c#/JJ	16e/JJ	.	.	.	.	.	.	.	.	.	.	.
16A\LL|	.	4c#/	4e 4A/	.	.	.	.	.	.	.	.	.	.	.
16G\|	.	.	.	.	.	.	.	.	.	.	.	.	.	.
16F\|	.	.	.	.	.	.	.	.	.	.	.	.	.	.
16E\JJ|	.	.	.	.	.	.	.	.	.	.	.	.	.	.
=3	=3	=3	=3	=3	=3	=3	=3	=3	=3	=3	=3	=3	=3	=3
!LO:LB:g=original	!	!	!	!	!	!	!	!	!	!	!	!	!	!
!LO:TX:a:t=T&colon;	!	!	!	!	!	!	!	!	!	!	!	!	!	!
16.D\LL	.	4f/	4dd\	1ryy	4D\	Sa-	4A\	Sa-	4f\	Sa-	4dd\	Sa-	1ryy	1ryy
32D\K	.	.	.	.	.	.	.	.	.	.	.	.	.	.
16.F\	.	.	.	.	.	.	.	.	.	.	.	.	.	.
32E\JJk	.	.	.	.	.	.	.	.	.	.	.	.	.	.
16.D\LL	.	16r	16r	.	4D\	-lus	4A\	-lus	4f\	-lus	4dd\	-lus	.	.
.	.	16f/LL	16dd\LL	.	.	.	.	.	.	.	.	.	.	.
32A\K	.	.	.	.	.	.	.	.	.	.	.	.	.	.
16.F\	.	16f/	16dd\	.	.	.	.	.	.	.	.	.	.	.
.	.	16f/JJ	16dd\JJ	.	.	.	.	.	.	.	.	.	.	.
32D\JJk	.	.	.	.	.	.	.	.	.	.	.	.	.	.
16.r	.	4e/	4cc#X\	.	4E\	in-	4e\	in-	4g\	in-	4cc#X\	in-	.	.
32E\KLL	6\_	.	.	.	.	.	.	.	.	.	.	.	.	.
16.G\	.	.	.	.	.	.	.	.	.	.	.	.	.	.
32F\JJk	X	.	.	.	.	.	.	.	.	.	.	.	.	.
16.E\LL	.	16r	16r	.	4E\	-fir-	4e\	-fir-	4g\	-fir-	4cc#\	-fir-	.	.
.	.	16e/LL	16cc#\LL	.	.	.	.	.	.	.	.	.	.	.
32B-X\K	.	.	.	.	.	.	.	.	.	.	.	.	.	.
16.G\	.	16g/	16cc#\	.	.	.	.	.	.	.	.	.	.	.
.	.	16g/JJ	16cc#\JJ	.	.	.	.	.	.	.	.	.	.	.
32E\JJk	.	.	.	.	.	.	.	.	.	.	.	.	.	.
=4	=4	=4	=4	=4	=4	=4	=4	=4	=4	=4	=4	=4	=4	=4
!	!	!LO:LB:g=original	!	!	!	!	!	!	!	!	!	!	!	!
*	*	*	*	*	*	*	*2\right	*	*2\right	*	*2\right	*	*	*
16.r	.	4f/	4dd\	1ryy	(4F\	-mo-	2A\	-mo-	2f\	-mo-	2dd\	-mo-	1ryy	1ryy
32F\KLL	6_	.	.	.	.	.	.	.	.	.	.	.	.	.
16.A\	.	.	.	.	.	.	.	.	.	.	.	.	.	.
32G\JJk	X	.	.	.	.	.	.	.	.	.	.	.	.	.
16.F\LL	.	16r	16r	.	4D\)	.	.	.	.	.	.	.	.	.
.	.	16f/LL	16dd\LL	.	.	.	.	.	.	.	.	.	.	.
32d\K	.	.	.	.	.	.	.	.	.	.	.	.	.	.
16.B-\	.	16f/	16dd\	.	.	.	.	.	.	.	.	.	.	.
.	.	16f/JJ	16dd\JJ	.	.	.	.	.	.	.	.	.	.	.
32F\JJk	.	.	.	.	.	.	.	.	.	.	.	.	.	.
!	!	!	!	!	!	!	!	!	!	!	!LO:SIC:s=4cc#	!	!	!
16.E\LL	6\	8e/L	8cc#X\L	.	4AA/	-rum	4A\	-rum	4e\	-rum	4cc\	-rum	.	.
32A\K	#	.	.	.	.	.	.	.	.	.	.	.	.	.
16.E\	.	16e/L	16cc#\L	.	.	.	.	.	.	.	.	.	.	.
.	.	16e/JJ	16cc#\JJ	.	.	.	.	.	.	.	.	.	.	.
32C#X\JJk	.	.	.	.	.	.	.	.	.	.	.	.	.	.
4AA/	.	4e/	4cc#\	.	4r	.	4r	.	4r	.	4r	.	.	.
=5	=5	=5	=5	=5	=5	=5	=5	=5	=5	=5	=5	=5	=5	=5
!LO:TX:a:t=Solo	!	!	!LO:LB:g=original	!	!LO:TX:a:t=2	!	!	!	!LO:TX:a:t=2	!	!	!	!	!
4F\	.	16.r	16r	1ryy	0r	.	0r	.	0r	.	0r	.	1ryy	1ryy
.	.	.	16f/LL	.	.	.	.	.	.	.	.	.	.	.
.	.	32f/KLL	.	.	.	.	.	.	.	.	.	.	.	.
.	.	16.a/	16.a/	.	.	.	.	.	.	.	.	.	.	.
.	.	32g/JJk	32g/JJk	.	.	.	.	.	.	.	.	.	.	.
8r	.	16.f/LL	16.f/LL	.	.	.	.	.	.	.	.	.	.	.
.	.	32dd/K	32dd/K	.	.	.	.	.	.	.	.	.	.	.
8F\	.	16.a/	16.a/	.	.	.	.	.	.	.	.	.	.	.
.	.	32f/JJk	32f/JJk	.	.	.	.	.	.	.	.	.	.	.
4E\	6	16.r	16r	.	.	.	.	.	.	.	.	.	.	.
.	.	.	16g/LL	.	.	.	.	.	.	.	.	.	.	.
.	.	32g/KLL	.	.	.	.	.	.	.	.	.	.	.	.
.	.	16.b-/	16.b-/	.	.	.	.	.	.	.	.	.	.	.
.	.	32a/JJk	32a/JJk	.	.	.	.	.	.	.	.	.	.	.
8r	.	16.g/LL	16.g/LL	.	.	.	.	.	.	.	.	.	.	.
!	!	!	!LO:N:vis=16	!	!	!	!	!	!	!	!	!	!	!
.	.	32dd/K	32dd/K	.	.	.	.	.	.	.	.	.	.	.
8E\	.	16.b-/	16.b-/	.	.	.	.	.	.	.	.	.	.	.
!	!	!	!LO:N:vis=16	!	!	!	!	!	!	!	!	!	!	!
.	.	32g/JJk	32g/JJk	.	.	.	.	.	.	.	.	.	.	.
=6	=6	=6	=6	=6	=6	=6	=6	=6	=6	=6	=6	=6	=6	=6
!	!	!LO:N:vis=16r	!	!	!	!	!	!	!	!	!	!	!	!
4F\	.	16.r	16r	1ryy	.	.	.	.	.	.	.	.	1ryy	1ryy
.	.	.	16a\LL	.	.	.	.	.	.	.	.	.	.	.
*	*	*32\right	*	*	*	*	*	*	*	*	*	*	*	*
.	.	32a\KLL	.	.	.	.	.	.	.	.	.	.	.	.
*	*	*16\right	*	*	*	*	*	*	*	*	*	*	*	*
.	.	16.cc\	16.cc\	.	.	.	.	.	.	.	.	.	.	.
.	.	32b-\JJk	32b-\JJk	.	.	.	.	.	.	.	.	.	.	.
8r	.	16.a\LL	16.a\LL	.	.	.	.	.	.	.	.	.	.	.
.	.	32ff\K	32ff\K	.	.	.	.	.	.	.	.	.	.	.
8F\	.	16.cc\	16.cc\	.	.	.	.	.	.	.	.	.	.	.
.	.	32a\JJk	32a\JJk	.	.	.	.	.	.	.	.	.	.	.
!LO:TX:a:t=P:problem=mixed beam	!	!	!	!	!	!	!	!	!	!	!	!	!	!
8c\L	.	8b-/L	8g/L	.	.	.	.	.	.	.	.	.	.	.
8C/J	.	16g/L	16c/L	.	.	.	.	.	.	.	.	.	.	.
.	.	16g/JJ	16c/JJ	.	.	.	.	.	.	.	.	.	.	.
16c\LL|	.	4g/	4c/	.	.	.	.	.	.	.	.	.	.	.
16B-\|	.	.	.	.	.	.	.	.	.	.	.	.	.	.
16A\|	.	.	.	.	.	.	.	.	.	.	.	.	.	.
16G\JJ|	.	.	.	.	.	.	.	.	.	.	.	.	.	.
=7	=7	=7	=7	=7	=7	=7	=7	=7	=7	=7	=7	=7	=7	=7
!LO:LB:g=original	!	!	!	!	!	!	!	!	!	!	!	!	!	!
*	*	*	*	*	*2\right	*	*	*	*	*	*	*	*	*
!LO:TX:a:t=Tut&colon;	!	!	!	!	!	!	!	!	!	!	!	!	!	!
16.F\LL	.	4a/	4ff\	1ryy	2F\	Re-	2c\	O-	2a\	Re-	2ff\	Re-	1ryy	1ryy
32F\K	.	.	.	.	.	.	.	.	.	.	.	.	.	.
16.A\	.	.	.	.	.	.	.	.	.	.	.	.	.	.
32G\JJk	.	.	.	.	.	.	.	.	.	.	.	.	.	.
16.F\LL	.	16r	16r	.	.	.	.	.	.	.	.	.	.	.
.	.	16a/LL	16ff\LL	.	.	.	.	.	.	.	.	.	.	.
32c\K	.	.	.	.	.	.	.	.	.	.	.	.	.	.
16.A\	.	16a/	16ff\	.	.	.	.	.	.	.	.	.	.	.
.	.	16a/JJ	16ff\JJ	.	.	.	.	.	.	.	.	.	.	.
32F\JJk	.	.	.	.	.	.	.	.	.	.	.	.	.	.
!	!	!LO:PB:g=original	!	!	!	!	!	!	!	!	!	!	!	!
16.r	.	4b-/	4ee\	.	8G\	-fu-	4c\	-ra	8b-\	-fu-	8ee\	-fu-	.	.
32G\KLL	6	.	.	.	.	.	.	.	.	.	.	.	.	.
16.B-\	.	.	.	.	16G\	-gi-	.	.	16b-\	-gi-	16ee\	-gi-	.	.
.	.	.	.	.	16G\	-um	.	.	16b-\	-um	16ee\	-um	.	.
32A\JJk	.	.	.	.	.	.	.	.	.	.	.	.	.	.
16.G\LL	.	16r	16r	.	8G\	pe-	4c\	pro	8b-\	pe-	8ee\	pe-	.	.
.	.	16b-/LL	16ee\LL	.	.	.	.	.	.	.	.	.	.	.
32d\K	.	.	.	.	.	.	.	.	.	.	.	.	.	.
16.B-\	.	16b-/	16ee\	.	8G\	-ca-	.	.	8b-\	-ca-	8ee\	-ca-	.	.
.	.	16b-/JJ	16ee\JJ	.	.	.	.	.	.	.	.	.	.	.
32G\JJk	.	.	.	.	.	.	.	.	.	.	.	.	.	.
=8	=8	=8	=8	=8	=8	=8	=8	=8	=8	=8	=8	=8	=8	=8
!	!	!	!	!	!LO:LB:g=original	!	!	!	!	!	!	!	!	!
16.r	.	4a/	4ff\	1ryy	(4A\	-to-	2c\	no-	2a\	-to-	2ff\	-to-	1ryy	1ryy
32A\KLL	.	.	.	.	.	.	.	.	.	.	.	.	.	.
!	!	!	!	!	!LO:TX:a:t=P:problem=nadliczbowa kreska taktowa	!	!	!	!	!	!	!	!	!
16.c\	.	.	.	.	.	.	.	.	.	.	.	.	.	.
32B-\JJk	.	.	.	.	.	.	.	.	.	.	.	.	.	.
16.A\LL	.	16r	16r	.	4F\)	.	.	.	.	.	.	.	.	.
.	.	16a/LL	16ff\LL	.	.	.	.	.	.	.	.	.	.	.
32f\K	.	.	.	.	.	.	.	.	.	.	.	.	.	.
16.c\	.	16a/	16ff\	.	.	.	.	.	.	.	.	.	.	.
.	.	16a/JJ	16ff\JJ	.	.	.	.	.	.	.	.	.	.	.
32A\JJk	.	.	.	.	.	.	.	.	.	.	.	.	.	.
16.G\LL	6	8g/L	8ee\L	.	4C/	-rum	4c\	-bis	4g\	-rum	4ee\	-rum	.	.
32c\K	.	.	.	.	.	.	.	.	.	.	.	.	.	.
16.G\	.	16e/L	16cc\L	.	.	.	.	.	.	.	.	.	.	.
.	.	16e/JJ	16cc\JJ	.	.	.	.	.	.	.	.	.	.	.
32E\JJk	.	.	.	.	.	.	.	.	.	.	.	.	.	.
4C/	.	4e/	4cc\	.	4r	.	4r	.	4r	.	4r	.	.	.
=9	=9	=9	=9	=9	=9	=9	=9	=9	=9	=9	=9	=9	=9	=9
*	*	*tremolo	*tremolo	*	*	*	*	*	*	*	*	*	*	*
!	!	!	!	!	!	!	!	!	!	!	!LO:LB:g=original	!	!	!
!LO:TX:a:t=1	!	!	!	!	!	!	!	!	!	!	!	!	!	!
1r	.	8c/L	8c/L	1ryy	1r	.	1r	.	16g\LL	O-	16b-\LL	o-	1ryy	1ryy
.	.	.	.	.	.	.	.	.	16f\JJ	.	16g\JJ	.	.	.
.	.	8c/	8c/	.	.	.	.	.	8e\	-ra	8g\	-ra	.	.
.	.	8c/	8c/	.	.	.	.	.	16r	.	16r	.	.	.
.	.	.	.	.	.	.	.	.	16e\LL	pro	16g\LL	pro	.	.
.	.	8c/J	8c/J	.	.	.	.	.	16f\	.	16a\	.	.	.
.	.	.	.	.	.	.	.	.	16g\JJ	.	16b-\JJ	.	.	.
!	!	!	!	!	!	!	!	!	!LO:LB:g=original	!	!	!	!	!
.	.	8c/L	8c/L	.	.	.	.	.	16f\LL	no-	16a\LL	no-	.	.
.	.	.	.	.	.	.	.	.	16g\	.	16b-\	.	.	.
.	.	8c/	8c/	.	.	.	.	.	16a\	.	16cc\	.	.	.
.	.	.	.	.	.	.	.	.	16b-\JJ	.	16dd\JJ	.	.	.
.	.	8c/	8c/	.	.	.	.	.	4a\	-bis	4cc\	-bis	.	.
.	.	8c/J	8c/J	.	.	.	.	.	.	.	.	.	.	.
*	*	*Xtremolo	*Xtremolo	*	*	*	*	*	*	*	*	*	*	*
=10	=10	=10	=10	=10	=10	=10	=10	=10	=10	=10	=10	=10	=10	=10
!	!	!	!LO:LB:g=original	!	!	!	!	!	!	!	!	!	!	!
*	*	*	*	*	*	*	*	*ij	*	*	*	*	*	*
*tremolo	*	*	*	*	*	*	*	*	*	*	*	*	*	*
8C/L	.	(16gg\LL	(16bb-\LL	1ryy	4C/	o-	4c\	o-	16g\LL	o-	16cc\LL	o-	1ryy	1ryy
.	.	16ee\J)	16gg\J)	.	.	.	.	.	16e\JJ	.	16g\JJ	.	.	.
*	*	*8\right	*	*	*	*	*	*	*	*	*	*	*	*
8C/	.	8ee\J	8gg\J	.	.	.	.	.	8e\	-ra	8g\	-ra	.	.
!	!	!	!LO:N:vis=8	!	!	!	!	!	!	!	!	!	!	!
8C/	.	16r	16r	.	8C/	-ra	8c\	-ra	16r	.	16r	.	.	.
.	.	16ee\LL	16gg\LL	.	.	.	.	.	16e\LL	pro	16g\LL	pro	.	.
8C/J	.	16ff\	16aa\	.	8C/	pro	8c\	pro	16f\	.	16a\	.	.	.
.	.	16gg\JJ	16bb-\JJ	.	.	.	.	.	16g\JJ	.	16b-\JJ	.	.	.
8F\L	.	16ff\LL	16aa\LL	.	4F\	no-	4c\	no-	16f\LL	no-	16a\LL	no-	.	.
.	.	16gg\	16bb-\	.	.	.	.	.	16g\	.	16b-\	.	.	.
8F\	.	16aa\	16ccc\	.	.	.	.	.	16a\	.	16cc\	.	.	.
.	.	16bb-\JJ	16ddd\JJ	.	.	.	.	.	16b-\JJ	.	16dd\JJ	.	.	.
!	!	!	!	!	!	!	!LO:TX:a:t=P:problem=cezura na 5 linii	!	!	!	!	!	!	!
*	*	*4\right	*	*	*	*	*	*	*	*	*	*	*	*
8F\	.	4aa\	4ccc\	.	8F\	-bis	8c,\	-bis	8a\	-bis	8cc\	-bis	.	.
*	*	*	*	*	*	*	*	*Xij	*	*	*	*	*	*
8F\J	.	.	.	.	8F\	o-	8c\	O-	8a\	O-	8cc\	o-	.	.
*Xtremolo	*	*	*	*	*	*	*	*	*	*	*	*	*	*
=11	=11	=11	=11	=11	=11	=11	=11	=11	=11	=11	=11	=11	=11	=11
!	!	!	!	!	!	!	!LO:LB:g=original	!	!	!	!	!	!	!
4B-X\	6 5	16bb-\LL	16ddd\LL	1ryy	8B-\	-ra	8d\	-ra	8b-\	-ra	8dd\	-ra	1ryy	1ryy
.	.	16dd\	16bb-\	.	.	.	.	.	.	.	.	.	.	.
.	.	16cc\	16aa\	.	8B-\	pro	8d\	pro	16a\LL	pro	16cc\LL	pro	.	.
.	.	16b-\JJ	16gg\JJ	.	.	.	.	.	16g\JJ	.	16b-\JJ	.	.	.
!LO:TX:a:t=P:problem=mixed beam	!	!	!	!	!LO:TX:a:t=P:problem=mixed beam	!	!	!	!	!	!	!	!	!
8c\L	4	8a/L	8ff\L	.	8c\L	no-	4c\	no-	8f\L	no-	8a\L	no-	.	.
8C/J	3	8g/J	8ee\J	.	8C/J	.	.	.	8e\J	.	8g\J	.	.	.
!	!	!	!	!	!	!	!	!	!	!	!LO:LB:g=original	!	!	!
8F\L|	.	4a/	4ff\	.	4F\	-bis	4c\	-bis	4f\	-bis	4f/	-bis	.	.
16F\L|	.	.	.	.	.	.	.	.	.	.	.	.	.	.
16G\JJ|	.	.	.	.	.	.	.	.	.	.	.	.	.	.
16A\LL|	.	4r	4r	.	4r	.	4r	.	4r	.	4r	.	.	.
16G\|	.	.	.	.	.	.	.	.	.	.	.	.	.	.
16F\|	.	.	.	.	.	.	.	.	.	.	.	.	.	.
16E\JJ|	.	.	.	.	.	.	.	.	.	.	.	.	.	.
=12	=12	=12	=12	=12	=12	=12	=12	=12	=12	=12	=12	=12	=12	=12
!LO:LB:g=original	!	!LO:LB:g=original	!	!	!	!	!	!	!	!	!	!	!	!
16.D\LL	#	4a/	4dd\	1ryy	16r	.	4A\	Con-	4f#X\	Con-	4dd\	Con-	1ryy	1ryy
.	.	.	.	.	16D\LL	Con-	.	.	.	.	.	.	.	.
32D\K	.	.	.	.	.	.	.	.	.	.	.	.	.	.
16.F#X\	.	.	.	.	16F#X\	.	.	.	.	.	.	.	.	.
.	.	.	.	.	16A\JJ	.	.	.	.	.	.	.	.	.
32A\JJk	.	.	.	.	.	.	.	.	.	.	.	.	.	.
!	!	!	!	!	!LO:LB:g=original	!	!	!	!	!	!	!	!	!
16.d\LL	.	16r	16r	.	16d\LL	.	4A\	-ſo-	4f#\	-ſo-	4dd\	-ſo-	.	.
.	.	16a/LL	16dd\LL	.	16A\JJ	.	.	.	.	.	.	.	.	.
32A\K	.	.	.	.	.	.	.	.	.	.	.	.	.	.
16.F#X\	.	16a/	16dd\	.	16F#\LL	-so-	.	.	.	.	.	.	.	.
.	.	16a/JJ	16dd\JJ	.	16D\JJ	.	.	.	.	.	.	.	.	.
32D\JJk	.	.	.	.	.	.	.	.	.	.	.	.	.	.
!LO:TX:a:t=P:problem=mixed beam	!	!	!	!	!	!	!	!	!	!	!	!	!	!
16.G\LL	.	4b-/	4dd\	.	4G\	-lat-	4B-X\	-lat-	4g\	-lat-	4dd\	-lat-	.	.
32GG/K	.	.	.	.	.	.	.	.	.	.	.	.	.	.
16.BB-X/	.	.	.	.	.	.	.	.	.	.	.	.	.	.
32D/JJk	.	.	.	.	.	.	.	.	.	.	.	.	.	.
16.G/LL	.	16r	16r	.	4G\	-rix	4B-\	-rix	4g\	-rix	4dd\	-rix	.	.
.	.	16b-/LL	16dd\LL	.	.	.	.	.	.	.	.	.	.	.
32D/K	.	.	.	.	.	.	.	.	.	.	.	.	.	.
16.BB-/	.	16b-/	16dd\	.	.	.	.	.	.	.	.	.	.	.
.	.	16b-/JJ	16dd\JJ	.	.	.	.	.	.	.	.	.	.	.
32GG/JJk	.	.	.	.	.	.	.	.	.	.	.	.	.	.
=13	=13	=13	=13	=13	=13	=13	=13	=13	=13	=13	=13	=13	=13	=13
16.r	.	4bn\	4ee\	1ryy	16r	.	4Bn\	Af-	4g#X\	Af-	4ee\	af-	1ryy	1ryy
.	.	.	.	.	16E\LL	aff-	.	.	.	.	.	.	.	.
32E\KLL	.	.	.	.	.	.	.	.	.	.	.	.	.	.
16.G#X\	.	.	.	.	16G#X\	.	.	.	.	.	.	.	.	.
!	!	!	!	!	!LO:SIC:s=16Bn	!	!	!	!	!	!	!	!	!
.	.	.	.	.	16B-\JJ	.	.	.	.	.	.	.	.	.
32B\JJk	.	.	.	.	.	.	.	.	.	.	.	.	.	.
16.e\LL	.	16r	16r	.	16e\LL	.	4B\	-flic-	4g#\	-flic-	4ee\	-flic-	.	.
!	!	!	!	!	!LO:SIC:s=16Bn	!	!	!	!	!	!	!	!	!
.	.	16b\LL	16ee\LL	.	16B-\JJ	.	.	.	.	.	.	.	.	.
32B\K	.	.	.	.	.	.	.	.	.	.	.	.	.	.
16.G#X\	.	16b\	16ee\	.	16G#X\LL	-lic-	.	.	.	.	.	.	.	.
.	.	16b\JJ	16ee\JJ	.	16E\JJ	.	.	.	.	.	.	.	.	.
32E\JJk	.	.	.	.	.	.	.	.	.	.	.	.	.	.
!	!	!	!	!	!	!	!	!	!LO:LB:g=original	!	!	!	!	!
16.r	.	4cc#X\	4ee\	.	4A\	-to-	4c#X\	-to-	4a\	-to-	4ee\	-to-	.	.
32AA/KLL	.	.	.	.	.	.	.	.	.	.	.	.	.	.
16.C#X/	.	.	.	.	.	.	.	.	.	.	.	.	.	.
32E/JJk	.	.	.	.	.	.	.	.	.	.	.	.	.	.
16.A/LL	.	16r	16r	.	4A\	-ru(m)	4c#\	-ru(m)	4a\	-rum	4ee\	-ru(m)	.	.
.	.	16cc#\LL	16ee\LL	.	.	.	.	.	.	.	.	.	.	.
32E/K	.	.	.	.	.	.	.	.	.	.	.	.	.	.
16.C#X/	.	16cc#\	16ee\	.	.	.	.	.	.	.	.	.	.	.
.	.	16cc#\JJ	16ee\JJ	.	.	.	.	.	.	.	.	.	.	.
32AA/JJk	.	.	.	.	.	.	.	.	.	.	.	.	.	.
=14	=14	=14	=14	=14	=14	=14	=14	=14	=14	=14	=14	=14	=14	=14
!	!	!LO:SIC:s=4cc#	!	!	!	!	!LO:SIC:s=2c#	!	!	!	!	!	!	!
16.r	.	4cc\	4ee\	1ryy	2G\	au-	2c\	au-	2a\	au-	2ee\	au-	1ryy	1ryy
32GG/KLL	4 2	.	.	.	.	.	.	.	.	.	.	.	.	.
16.C#X/	.	.	.	.	.	.	.	.	.	.	.	.	.	.
32E/JJk	.	.	.	.	.	.	.	.	.	.	.	.	.	.
16.G/LL	.	16r	16r	.	.	.	.	.	.	.	.	.	.	.
!	!	!LO:SIC:s=16cc#	!	!	!	!	!	!	!	!	!	!	!	!
.	.	16cc\LL	16ee\LL	.	.	.	.	.	.	.	.	.	.	.
32E/K	.	.	.	.	.	.	.	.	.	.	.	.	.	.
!	!	!LO:SIC:s=16cc#	!	!	!	!	!	!	!	!	!	!	!	!
16.C#/	.	16cc\	16ee\	.	.	.	.	.	.	.	.	.	.	.
!	!	!LO:SIC:s=16cc#	!	!	!	!	!	!	!	!	!	!	!	!
.	.	16cc\JJ	16ee\JJ	.	.	.	.	.	.	.	.	.	.	.
32GG/JJk	.	.	.	.	.	.	.	.	.	.	.	.	.	.
16.FFn/LL	6	4f/	4dd\	.	8F\	-xi-	8d\	-xi-	8a\	-xi-	8dd\	-xi-	.	.
32AA/K	.	.	.	.	.	.	.	.	.	.	.	.	.	.
16.C#/	.	.	.	.	16D\	-li-	16f\	-li-	16a\	-li-	16dd\	-li-	.	.
.	.	.	.	.	16D\	-um	16f\	-um	16a\	-um	16dd\	-um	.	.
32F/JJk	.	.	.	.	.	.	.	.	.	.	.	.	.	.
!LO:LB:g=original	!	!	!	!	!	!	!	!	!	!	!	!	!	!
16.D\LL	.	16r	16r	.	8D\	Chris-	8f\	Chriſ-	8a\	Chriſ-	8dd\	Chris-	.	.
.	.	16f/LL	16dd\LL	.	.	.	.	.	.	.	.	.	.	.
32F\K	.	.	.	.	.	.	.	.	.	.	.	.	.	.
16.A\	.	16f/	16dd\	.	16D\	-ti-	16f\	-ti-	16a\	-ti-	16dd\	-ti-	.	.
.	.	16f/JJ	16dd\JJ	.	16D\	-a-	16f\	-a-	16a\	-a-	16dd\	-a-	.	.
32d\JJk	.	.	.	.	.	.	.	.	.	.	.	.	.	.
=15	=15	=15	=15	=15	=15	=15	=15	=15	=15	=15	=15	=15	=15	=15
!	!	!	!	!	!LO:LB:g=original	!	!	!	!	!	!	!	!	!
16r	.	4e/	4cc#X\	1ryy	(4A\	-no-	(4e\	-no-	2a\	-no-	(4cc#X\	-no-	1ryy	1ryy
16A\LL	#	.	.	.	.	.	.	.	.	.	.	.	.	.
16A\	.	.	.	.	.	.	.	.	.	.	.	.	.	.
16A\JJ	.	.	.	.	.	.	.	.	.	.	.	.	.	.
16r	.	4f/	4dd\	.	4G#X\)	.	4f\)	.	.	.	4dd\)	.	.	.
16G#X\LL	n	.	.	.	.	.	.	.	.	.	.	.	.	.
16G#\	7	.	.	.	.	.	.	.	.	.	.	.	.	.
16G#\JJ	.	.	.	.	.	.	.	.	.	.	.	.	.	.
!LO:TX:a:t=P:problem=mixed beam	!	!	!LO:LB:g=original	!	!	!	!	!	!	!	!	!	!	!
8A\L	.	8.e/L	8cc#X\L	.	4A\	-rum	4e\	-rum	4a\	-rum	4cc#\	-rum	.	.
8AA/J	.	.	16cc#\L	.	.	.	.	.	.	.	.	.	.	.
.	.	32e/LL	16cc#\JJ	.	.	.	.	.	.	.	.	.	.	.
.	.	32e/JJJ	.	.	.	.	.	.	.	.	.	.	.	.
4AA/	.	4e/	4cc#\	.	4r	.	4r	.	4r	.	4r	.	.	.
=16	=16	=16	=16	=16	=16	=16	=16	=16	=16	=16	=16	=16	=16	=16
!	!	!LO:LB:g=original	!	!	!	!	!LO:LB:g=original	!	!	!	!	!	!	!
!LO:TX:a:t=1	!	!	!	!	!	!	!LO:TX:a:t=1	!	!	!	!	!	!	!
*	*	*tremolo	*tremolo	*	*	*	*	*	*	*	*	*	*	*
1r	.	8c#X/L	8A/L	1ryy	1r	.	1r	.	16e\LL	O-	16g/LL	o-	1ryy	1ryy
.	.	.	.	.	.	.	.	.	16c#X\JJ	.	16e/JJ	.	.	.
.	.	8c#X/	8A/	.	.	.	.	.	8c#\	-ra	8e/	-ra	.	.
.	.	8c#X/	8A/	.	.	.	.	.	16r	.	16r	.	.	.
!	!	!	!	!	!	!	!	!	!	!	!LO:LB:g=original	!	!	!
.	.	.	.	.	.	.	.	.	16c#\LL	pro	16e/LL	pro	.	.
.	.	8c#X/J	8A/J	.	.	.	.	.	16d\	.	16f/	.	.	.
.	.	.	.	.	.	.	.	.	16e\JJ	.	16g/JJ	.	.	.
!	!	!LO:TX:a:t=d	!	!	!	!	!	!	!	!	!	!	!	!
.	.	8d/L	8A/L	.	.	.	.	.	16d\LL	no-	16f/LL	no-	.	.
.	.	.	.	.	.	.	.	.	16e\	.	16g/	.	.	.
.	.	8d/	8A/	.	.	.	.	.	16f\	.	16a/	.	.	.
.	.	.	.	.	.	.	.	.	16g\JJ	.	16b-X/JJ	.	.	.
.	.	8d/	8A/	.	.	.	.	.	4f\	-bis	4a\	-bis	.	.
.	.	8d/J	8A/J	.	.	.	.	.	.	.	.	.	.	.
*	*	*Xtremolo	*Xtremolo	*	*	*	*	*	*	*	*	*	*	*
=17	=17	=17	=17	=17	=17	=17	=17	=17	=17	=17	=17	=17	=17	=17
*tremolo	*	*	*	*	*	*	*	*	*	*	*	*ij	*	*
8AA/L	7_ #_	(16ee\LL	(16gg\LL	1ryy	4A\	o-	4A\	o-	16e\LL	o-	16g/LL	o-	1ryy	1ryy
.	.	16cc#X\J)	16ee\J)	.	.	.	.	.	16c\JJ	.	16e/JJ	.	.	.
8AA/	.	8cc#\J	8ee\J	.	.	.	.	.	8c\	-ra	8e/	-ra	.	.
8AA/	.	16r	16r	.	8A\	-ra	8A\	-ra	16r	.	16r	.	.	.
!	!	!	!	!	!	!	!	!	!LO:LB:g=original	!	!	!	!	!
.	.	16cc#\LL	16ee\LL	.	.	.	.	.	16c\LL	pro	16e/LL	pro	.	.
8AA/J	.	16dd\	16ff\	.	8A\	pro	8A\	pro	16d\	.	16f/	.	.	.
.	.	16ee\JJ	16gg\JJ	.	.	.	.	.	16e\JJ	.	16g/JJ	.	.	.
8D/L	n	16dd\LL	16ff\LL	.	4D\	no-	4A\	no-	16d\LL	no-	16f/LL	no-	.	.
.	.	16ee\	16gg\	.	.	.	.	.	16e\	.	16g/	.	.	.
*Xtremolo	*	*	*	*	*	*	*	*	*	*	*	*	*	*
8D/	.	16ff\	16aa\	.	.	.	.	.	16f\	.	16a/	.	.	.
.	.	16gg\JJ	16bb-\JJ	.	.	.	.	.	16g\JJ	.	16b-/JJ	.	.	.
8D/	.	4ff\	4aa\	.	8D\	-bis	8A\	-bis	8f\	.	8a\	-bis	.	.
*	*	*	*	*	*	*	*	*	*	*	*	*Xij	*	*
8D/J	.	.	.	.	8D\	o-	8A\	o-	8a\	-bis	8a\	o-	.	.
=18	=18	=18	=18	=18	=18	=18	=18	=18	=18	=18	=18	=18	=18	=18
4G\	6 5	16gg\LL	16bb-\LL	1ryy	8G\	-ra	8B-\	-ra	8b-\	O	16b-\LL	-ra	1ryy	1ryy
.	.	16b-\	16gg\	.	.	.	.	.	.	.	16gg\JJ	.	.	.
*	*	*	*	*	*	*	*	*ij	*	*	*	*	*	*
.	.	16a\	16ff\	.	8G\	pro	8B-\	pro	16a\LL	-ra	16ff\LL	pro	.	.
.	.	16g\JJ	16ee\JJ	.	.	.	.	.	16g\JJ	.	16ee\JJ	.	.	.
!LO:TX:a:t=P:problem=mixed beam	!	!	!	!	!LO:TX:a:t=P:problem=mixed beam	!	!	!	!	!	!	!	!	!
8A\L	4	8f/L	8dd\L	.	8A\L	no-	4A\	no-	8f\L	o-	8dd\L	no-	.	.
8AA/J	3	8e/J	8cc#X\J	.	8AA/J	.	.	.	8e\J	.	8cc#X\J	.	.	.
4D/	.	4f/	4dd\	.	4D\	-bis	4A\	-bis	4f\	-ra	4dd\	-bis	.	.
*	*	*	*	*	*	*	*	*Xij	*	*	*	*	*	*
4D/	.	4r	4r	.	4D\	pro	4A\	pro	4f\	pro	4dd\	pro	.	.
=19	=19	=19	=19	=19	=19	=19	=19	=19	=19	=19	=19	=19	=19	=19
!	!	!	!	!	!	!	!	!	!	!	!LO:LB:g=original	!	!	!
!LO:TX:a:t=pedale	!	!LO:TX:a:t=1	!	!	!	!	!	!	!	!	!	!	!	!
2AA/	.	1r	1r	1ryy	2AA/	no-	2A\	no-	2e\	no-	(4dd\	no-	1ryy	1ryy
.	.	.	.	.	.	.	.	.	.	.	4cc#X\)	.	.	.
4D/	.	.	.	.	4D\	-bis.	4A\	-bis.	4f\	-bis.	4dd\	-bis.	.	.
4r	.	.	.	.	4r	.	4r	.	4r	.	4r	.	.	.
==	==	==	==;	==	==;	==	==;;	==	==;;	==	==;;	==	==	==
*-	*-	*-	*-	*-	*-	*-	*-	*-	*-	*-	*-	*-	*-	*-
!!!system-decoration: [g1][g2][g3]s10
!!!RDF**kern: > = above
!!!RDF**kern: < = below
!!!RDF**kern: | = vertical stroke
!!!ENC: Marta Lawrence
!!!END: 2020-06-24
!!!ENC: Kamil Watkowski
!!!END: 2020-06-20
!!!YEC: Copyright 2022 Narodowy Instytut Fryderyka Chopina (https://polishscores.org)
!!!YEM: License CC-BY-4.0 (https://creativecommons.org/licenses/by/4.0)
